img/benefits/Group 70.svg

<svg width="92" height="63" viewBox="0 0 92 63" fill="none" xmlns="http://www.w3.org/2000/svg">
<rect x="0.2" y="0.2" width="91.6" height="62.6" rx="27.8" fill="#F9FBFF" stroke="#0037FC" stroke-width="0.4"/>
<path fill-rule="evenodd" clip-rule="evenodd" d="M37.3354 20.4701C38.3647 19.2871 39.0585 17.6394 38.8686 16C37.3853 16.056 35.5909 16.9396 34.5273 18.1212C33.5723 19.1698 32.7386 20.8453 32.9627 22.4525C34.6173 22.5743 36.3061 21.6544 37.3354 20.4701ZM41.0456 30.8751C41.087 35.1129 44.9572 36.5226 45 36.5408C44.9686 36.6402 44.3819 38.5495 42.9614 40.5235C41.7323 42.2287 40.4575 43.9269 38.4489 43.9633C36.476 43.9983 35.8407 42.8518 33.5837 42.8518C31.3282 42.8518 30.6229 43.9268 28.7557 43.9982C26.817 44.0668 25.3395 42.1533 24.1018 40.4537C21.5693 36.9776 19.6349 30.6303 22.2331 26.3463C23.5236 24.2197 25.8291 22.871 28.3331 22.8374C30.2361 22.8024 32.0334 24.0542 33.1968 24.0542C34.3603 24.0542 36.5445 22.5492 38.84 22.7704C39.8008 22.8082 42.4989 23.1385 44.2305 25.5478C44.0906 25.6304 41.0114 27.3332 41.0456 30.8751Z" fill="#0037FC"/>
<path d="M68.8125 36.4925C68.1558 36.4925 67.625 35.96 67.625 35.304V28.1734C67.625 27.5162 68.1558 26.9849 68.8125 26.9849C69.468 26.9849 70 27.5162 70 28.1734V35.304C70 35.96 69.468 36.4925 68.8125 36.4925ZM65.2476 21.2911C66.4327 23.3376 66.4375 25.7965 66.4375 25.7965H54.5625C54.5625 25.7965 54.5162 23.3055 55.7132 21.2519L53.4771 19.014C53.2456 18.7823 53.2456 18.4056 53.4771 18.1738C53.7087 17.9421 54.0851 17.9421 54.3167 18.1738L56.4138 20.2726C57.2926 19.2993 58.5881 18.5921 60.5 18.5921C62.3881 18.5921 63.6718 19.3183 64.5494 20.3083L66.6833 18.1738C66.9149 17.9421 67.2913 17.9421 67.5229 18.1738C67.7544 18.4056 67.7544 18.7823 67.5229 19.014L65.2476 21.2911ZM57.5312 22.2312C57.2035 22.2312 56.9375 22.4974 56.9375 22.8254C56.9375 23.1534 57.2035 23.4196 57.5312 23.4196C57.8578 23.4196 58.125 23.1534 58.125 22.8254C58.125 22.4974 57.8578 22.2312 57.5312 22.2312ZM63.4688 22.2312C63.141 22.2312 62.875 22.4974 62.875 22.8254C62.875 23.1534 63.141 23.4196 63.4688 23.4196C63.7953 23.4196 64.0625 23.1534 64.0625 22.8254C64.0625 22.4974 63.7953 22.2312 63.4688 22.2312ZM53.375 35.304C53.375 35.96 52.843 36.4925 52.1875 36.4925C51.5308 36.4925 51 35.96 51 35.304V28.1734C51 27.5162 51.5308 26.9849 52.1875 26.9849C52.843 26.9849 53.375 27.5162 53.375 28.1734V35.304ZM66.4375 37.6809C66.4375 39.2318 65.4424 40.5355 64.0625 41.0276V44.8116C64.0625 45.4676 63.5305 46 62.875 46C62.2183 46 61.6875 45.4676 61.6875 44.8116V41.2462H59.3125V44.8116C59.3125 45.4676 58.7805 46 58.125 46C57.4683 46 56.9375 45.4676 56.9375 44.8116V41.0276C55.5564 40.5355 54.5625 39.2306 54.5625 37.6809V26.9849H66.4375V37.6809Z" fill="#0037FC"/>
</svg>

<svg width="92" height="63" fill="none" xmlns="http://www.w3.org/2000/svg"><rect x=".2" y=".2" width="91.6" height="62.6" rx="27.8" fill="#F9FBFF" stroke="#0037FC" stroke-width=".4"/><path fill-rule="evenodd" clip-rule="evenodd" d="M37.335 20.47c1.03-1.183 1.724-2.83 1.534-4.47-1.484.056-3.278.94-4.342 2.121-.955 1.049-1.788 2.724-1.564 4.332 1.654.121 3.343-.799 4.372-1.983zm3.71 10.405c.042 4.238 3.912 5.648 3.955 5.666-.031.1-.618 2.009-2.039 3.983-1.229 1.705-2.503 3.403-4.512 3.44-1.973.034-2.608-1.112-4.865-1.112-2.256 0-2.961 1.075-4.828 1.146-1.939.069-3.416-1.845-4.654-3.544-2.533-3.476-4.467-9.824-1.869-14.108 1.29-2.126 3.596-3.475 6.1-3.509 1.903-.035 3.7 1.217 4.864 1.217 1.163 0 3.347-1.505 5.643-1.284.96.038 3.659.369 5.39 2.778-.14.082-3.219 1.785-3.184 5.327z" fill="#0037FC"/><path d="M68.813 36.492a1.188 1.188 0 01-1.188-1.188v-7.13a1.187 1.187 0 112.375 0v7.13c0 .656-.532 1.188-1.188 1.188zm-3.565-15.2c1.185 2.046 1.19 4.505 1.19 4.505H54.562s-.046-2.492 1.151-4.545l-2.236-2.238a.595.595 0 01.84-.84l2.097 2.099c.879-.974 2.174-1.68 4.086-1.68 1.888 0 3.172.725 4.05 1.715l2.133-2.134a.594.594 0 01.84.84l-2.275 2.277zm-7.717.94a.594.594 0 10.001 1.188.594.594 0 000-1.189zm5.938 0a.594.594 0 100 1.188.594.594 0 000-1.189zM53.375 35.303a1.188 1.188 0 11-2.375 0v-7.13a1.187 1.187 0 112.375 0v7.13zm13.063 2.377c0 1.55-.996 2.855-2.376 3.347v3.784a1.188 1.188 0 11-2.374 0v-3.566h-2.376v3.566a1.188 1.188 0 11-2.374 0v-3.784a3.555 3.555 0 01-2.376-3.347V26.985h11.876V37.68z" fill="#0037FC"/></svg>
